usr/share/icons/biglinux-icons-material-dark/16/actions/align-horizontal-left-out.svg

<svg xmlns="http://www.w3.org/2000/svg" viewBox="0 0 16 16">
<defs id="defs3051">
<style id="current-color-scheme" type="text/css">
.ColorScheme-Text{color:#dedede}
</style>
</defs>
<path d="M5 2v12h1V2zm2 0v5h7V2zm1 1h5v3H8zM2 9v5h2V9zm5 0v5h5V9zm1 1h3v3H8z" class="ColorScheme-Text" style="fill:currentColor;fill-opacity:1;stroke:none"/>
</svg>

<svg xmlns="http://www.w3.org/2000/svg" viewBox="0 0 16 16">
  <defs id="defs3051">
    <style type="text/css" id="current-color-scheme">
      .ColorScheme-Text {
        color:#dedede;
      }
      </style>
  </defs>
 <path style="fill:currentColor;fill-opacity:1;stroke:none" 
       d="M 5 2 L 5 14 L 6 14 L 6 2 L 5 2 z M 7 2 L 7 7 L 14 7 L 14 2 L 7 2 z M 8 3 L 13 3 L 13 6 L 8 6 L 8 3 z M 2 9 L 2 14 L 4 14 L 4 9 L 2 9 z M 7 9 L 7 14 L 12 14 L 12 9 L 7 9 z M 8 10 L 11 10 L 11 13 L 8 13 L 8 10 z "
     class="ColorScheme-Text"
     />
</svg>
